!!!!SEGMENT: pl-wru--50044-muz--007_buchner-philipp-friedrich--plectrum-musicum-sonata-vii.krn
!!!cenid: 16xx:1808
!!!COM: Buchner, Philipp Friedrich
!!!COM-rismID: pe30013776
!!!CDT:
!!!CNT:
!!!GTL: Plectrum musicum
!!!OTL: Sonata VII
!!!PDT: 1662
!!!AGN:
!!!SMS-siglum: PL-WRu
!!!SMS-shelfmark: 50044 Muz.
!!!SMS-shelfwork: 007 G
!!!SMS-variant:
!!!SMS-altvar:
!!!NIFC-rismSourceID: 990007465
!!!NIFC-rismChildID: 990007465
!!!NIFC-islandoraID: none
!!!URL-pdf-islandora:
!!!URL-scan: https://www.bibliotekacyfrowa.pl/dlibra/doccontent?id=116 @EN{Scan on Digital Library of University of Wroclaw} @PL{Skany w portalu Biblioteka Cyfrowa Uniwersytetu Wrocławskiego}
!!!ONB-nifc: UWAGA: Violino I: s. 9-10, Fagotto: s. 53-54, Bassus: s. 70, Bassus continuus: s. 85
!!!AIN: 1 cbass 1 fagot 1 organ 1 violn
!!!key: C
**kern	**fba	**kern	**fba	**kern	**kern
*part4	*part4	*part3	*part3	*part2	*part1
*staff4	*	*staff3	*	*staff2	*staff1
*I"BASSUS	*	*I"BASSUS	*	*I"VIOLINO I.	*I"FAGOTTO
*I'bc	*	*I'b	*	*I'vl 1	*I'fag
*Iorgan	*	*Icbass	*	*Ivioln	*Ifagot
*ICklav	*	*ICstr	*	*ICstr	*ICww
*IGcont	*	*IGcont	*	*	*
*clefF4	*	*clefF4	*	*clefG2	*clefF4
*	*	*Trd0c0	*	*	*
*k[]	*	*k[]	*	*k[]	*k[]
*C:	*	*C:	*	*C:	*C:
*M2/2	*	*M2/2	*	*M2/2	*M2/2
*met(C|)	*	*met(C|)	*	*met(C|)	*met(C|)
=1-	=1-	=1-	=1-	=1-	=1-
!LO:TX:b:t=Allegro.	!	!LO:TX:b:t=Allegro.	!	!LO:TX:b:t=Allegro.	!LO:TX:b:t=Allegro.
4GG/	.	4GG/	.	0r	8G\
.	.	.	.	.	16G\
.	.	.	.	.	16G\
4EE/	.	4EE/	.	.	16G\
.	.	.	.	.	16G\
.	.	.	.	.	16F\
.	.	.	.	.	16G\
4FF/	.	4FF/	.	.	8A\
.	.	.	.	.	16F\
.	.	.	.	.	16E\
4GG/	.	4GG/	.	.	8D/
.	.	.	.	.	16G\
!	!	!	!	!	!LO:TX:t=P:problem=kreska pseudotaktowa
.	.	.	.	.	16F\
=2-	=2-	=2-	=2-	=2-	=2-
4C/	.	4C/	.	.	8E\
.	.	.	.	.	8C/
4c\	.	4c\	.	.	8.c\
.	.	.	.	.	16B\
4A\	.	4A\	.	.	8.A\
.	.	.	.	.	16G\
!LO:TX:t=P:problem=kreska pseudotaktowa	!	!LO:TX:t=P:problem=kreska pseudotaktowa	!	!	!
4F\	.	4F\	.	.	8.F\
!	!	!	!	!	!LO:TX:t=P:problem=kreska pseudotaktowa
.	.	.	.	.	16E\
=3-	=3-	=3-	=3-	=3-	=3-
4D/	.	4D/	.	1r	4D/
4G\	.	4G\	.	.	8.G\
.	.	.	.	.	16F\
4E\	.	4E\	.	.	8.E\
.	.	.	.	.	16D/
4C/	.	4C/	.	.	8.C/
!	!	!	!	!	!LO:TX:t=P:problem=kreska pseudotaktowa
.	.	.	.	.	16BB/
=4-	=4-	=4-	=4-	=4-	=4-
4AA/	6	4AA/	6	2r	16AA/
.	.	.	.	.	16F\
.	.	.	.	.	16A\
.	.	.	.	.	16F\
4E\	6	4E\	6	.	16E\
.	.	.	.	.	16C/
.	.	.	.	.	16E\
.	.	.	.	.	16F\
*	*	*	*	*	*custos:G
!	!	!	!	!	!LO:LB:g=original
!LO:TX:t=P:problem=kreska pseudotaktowa	!	!LO:TX:t=P:problem=kreska pseudotaktowa	!	!	!
2BB/	6	2BB/	6	8dd\	16G\
.	.	.	.	.	16D/
.	.	.	.	16dd\	16G\
.	.	.	.	16dd\	16D/
.	.	.	.	16dd\	16BB/
.	.	.	.	16dd\	16GG/
.	.	.	.	16cc\	16AA/
!	!	!	!	!LO:TX:t=P:problem=kreska pseudotaktowa	!LO:TX:t=P:problem=kreska pseudotaktowa
.	.	.	.	16dd\	16BB/
=5-	=5-	=5-	=5-	=5-	=5-
8C/	7	8C/	7	8ee\	8C/
8AA/	#	8AA/	#	16cc\	8AA/
.	.	.	.	16b/	.
4D/	.	4D/	.	8a/	8D/
.	.	.	.	16dd\	8DD/
.	.	.	.	16cc\	.
4GG/	.	4GG/	.	8b/	2GG/
.	.	.	.	8g/	.
4BB/	.	4BB/	.	8.gg\	.
.	.	.	.	16ff\	.
=6-	=6-	=6-	=6-	=6-	=6-
4C/	.	4C/	.	8.ee\	0r
.	.	.	.	16dd\	.
4E\	.	4E\	.	8.cc\	.
.	.	.	.	16b/	.
4F\	.	4F\	.	4a/	.
!LO:TX:t=P:problem=kreska pseudotaktowa	!	!LO:TX:t=P:problem=kreska pseudotaktowa	!	!	!
4F#X\	.	4F#X\	.	8.dd\	.
!	!	!	!	!LO:TX:t=P:problem=kreska pseudotaktowa	!
.	.	.	.	16cc\	.
=7-	=7-	=7-	=7-	=7-	=7-
4G\	.	4G\	.	8.b/	.
.	.	.	.	16a/	.
4BB/	.	4BB/	.	8.g/	.
.	.	.	.	16f/	.
4C/	.	4C/	.	16e/	.
.	.	.	.	16cc\	.
.	.	.	.	16ee\	.
.	.	.	.	16cc\	.
4E\	.	4E\	.	16b/	.
.	.	.	.	16g/	.
.	.	.	.	16b/	.
.	.	.	.	16cc\	.
*	*	*	*	*custos:dd	*
!	!	!	!	!LO:LB:g=original	!
=8-	=8-	=8-	=8-	=8-	=8-
2D/	#	2D/	#	16dd\	8D/
.	.	.	.	16a/	.
.	.	.	.	16dd\	16D/
.	.	.	.	16a/	16D/
.	.	.	.	16f#X/	16D/
.	.	.	.	16d/	16D/
.	.	.	.	16e/	16C/
.	.	.	.	16f#/	16D/
8E\	.	8E\	.	8g/	8E\
8C/	.	8C/	.	8e/	16C/
.	.	.	.	.	16BB/
8AA/	7	8AA/	7	8a/	8AA/
!LO:TX:t=P:problem=kreska pseudotaktowa	!	!LO:TX:t=P:problem=kreska pseudotaktowa	!	!	!
8D/	#	8D/	#	8f#X/	16D/
!	!	!	!	!	!LO:TX:t=P:problem=kreska pseudotaktowa
.	.	.	.	.	16C/
=9-	=9-	=9-	=9-	=9-	=9-
4GG/	.	4GG/	.	2g/	8BB/
.	.	.	.	.	8GG/
4G\	.	4G\	.	.	8.G\
.	.	.	.	.	16F\
4E\	.	4E\	.	2r	8.E\
.	.	.	.	.	16D/
4C/	.	4C/	.	.	8.C/
!	!	!	!	!	!LO:TX:t=P:problem=kreska pseudotaktowa
.	.	.	.	.	16BB/
*custos:AA	*	*custos:AA	*	*	*
!LO:LB:g=original	!	!LO:LB:g=original	!	!	!
=10-	=10-	=10-	=10-	=10-	=10-
4AA/	.	4AA/	.	0r	4AA/
4D/	.	4D/	.	.	8.D/
.	.	.	.	.	16C/
*	*	*	*	*	*custos:BB
!	!	!	!	!	!LO:LB:g=original
4BB/	.	4BB/	.	.	8.BB/
.	.	.	.	.	16AA/
4GG/	.	4GG/	.	.	8.GG/
!	!	!	!	!	!LO:TX:t=P:problem=kreska pseudotaktowa
.	.	.	.	.	16FF/
=11-	=11-	=11-	=11-	=11-	=11-
4EE/	6	4EE/	6	.	16EE/
.	.	.	.	.	16C/
.	.	.	.	.	16E\
.	.	.	.	.	16C/
4BB/	.	4BB/	.	.	16BB/
.	.	.	.	.	16GG/
.	.	.	.	.	16BB/
.	.	.	.	.	16C/
4D/	#	4D/	#	.	16D/
.	.	.	.	.	16A\
.	.	.	.	.	16d\
.	.	.	.	.	16A\
!LO:TX:t=P:problem=kreska pseudotaktowa	!	!LO:TX:t=P:problem=kreska pseudotaktowa	!	!	!
4F#X\	.	4F#X\	.	.	16F#X\
.	.	.	.	.	16D/
.	.	.	.	.	16E\
!	!	!	!	!	!LO:TX:t=P:problem=kreska pseudotaktowa
.	.	.	.	.	16F#\
=12-	=12-	=12-	=12-	=12-	=12-
4G\	.	4G\	.	8gg\	16G\
.	.	.	.	.	16G\
.	.	.	.	16gg\	16B\
.	.	.	.	16gg\	16G\
4E\	.	4E\	.	16gg\	16E\
.	.	.	.	16gg\	16C/
.	.	.	.	16ff\	16D/
.	.	.	.	16gg\	16E\
4Fny\	6	4Fny\	6	8aa\	8Fny\
.	.	.	.	16ff\	8D/
.	.	.	.	16ee\	.
4G\	6 5	4G\	6 5	8dd\	8G\
.	.	.	.	16gg\	8GG/
!	!	!	!	!LO:TX:t=P:problem=kreska pseudotaktowa	!
.	.	.	.	16ff\	.
=13-	=13-	=13-	=13-	=13-	=13-
4C/	.	4C/	.	8ee\	2C/
.	.	.	.	8cc\	.
4E\	.	4E\	.	8.ccc\	.
.	.	.	.	16bb\	.
4F\	.	4F\	.	8.aa\	2r
.	.	.	.	16gg\	.
4D/	.	4D/	.	8.ff\	.
.	.	.	.	16ee\	.
*	*	*	*	*custos:dd	*
!	!	!	!	!LO:LB:g=original	!
=14-	=14-	=14-	=14-	=14-	=14-
!	!	!	!	!	!LO:TX:t=P:problem=kreska pseudotaktowa
4G\	.	4G\	.	4dd\	1r
4BB/	.	4BB/	.	8.gg\	.
.	.	.	.	16ff\	.
4C/	.	4C/	.	8.ee\	.
.	.	.	.	16dd\	.
!LO:TX:t=P:problem=kreska pseudotaktowa	!	!LO:TX:t=P:problem=kreska pseudotaktowa	!	!	!
4E\	.	4E\	.	8.cc\	.
!	!	!	!	!LO:TX:t=P:problem=kreska pseudotaktowa	!
.	.	.	.	16b/	.
=15-	=15-	=15-	=15-	=15-	=15-
4F\	.	4F\	.	16a/	2r
.	.	.	.	16ff\	.
.	.	.	.	16gg\	.
.	.	.	.	16ff\	.
4A\	.	4A\	.	16ee\	.
.	.	.	.	16cc\	.
.	.	.	.	16ee\	.
.	.	.	.	16ff\	.
2G\	.	2G\	.	16gg\	8G\
.	.	.	.	16dd\	.
.	.	.	.	16gg\	16G\
.	.	.	.	16dd\	16G\
*	*	*	*	*	*custos:G
!	!	!	!	!	!LO:LB:g=original
.	.	.	.	16b/	16G\
.	.	.	.	16g/	16G\
.	.	.	.	16a/	16F\
!	!	!	!	!LO:TX:t=P:problem=kreska pseudotaktowa	!LO:TX:t=P:problem=kreska pseudotaktowa
.	.	.	.	16b/	16G\
=16-	=16-	=16-	=16-	=16-	=16-
8A\	.	8A\	.	8cc\	8A\
8F\	.	8F\	.	8a/	16F\
.	.	.	.	.	16E\
8D/	.	8D/	.	8dd\	8D/
8G\	.	8G\	.	8b/	16G\
.	.	.	.	.	16F\
4C/	.	4C/	.	4cc\	8E\
.	.	.	.	.	8C/
4c\	.	4c\	.	16r	8.c\
.	.	.	.	16g/	.
.	.	.	.	16a/	.
!	!	!	!	!LO:TX:t=P:problem=kreska pseudotaktowa	!LO:TX:t=P:problem=kreska pseudotaktowa
.	.	.	.	16b/	16B\
=17-	=17-	=17-	=17-	=17-	=17-
4A\	.	4A\	.	8.cc\	8.A\
.	.	.	.	32b/	16G\
.	.	.	.	32cc\	.
4F\	.	4F\	.	16a/	8.F\
.	.	.	.	16cc\	.
.	.	.	.	16dd\	.
.	.	.	.	16ee\	16E\
*	*	*	*	*custos:ff	*
!	!	!	!	!LO:LB:g=original	!
!LO:TX:t=P:problem=kreska pseudotaktowa	!	!LO:TX:t=P:problem=kreska pseudotaktowa	!	!	!
2D/	.	2D/	.	8.ff\	4D/
.	.	.	.	32ee\	.
.	.	.	.	32ff\	.
!	!	!	!	!LO:TX:t=P:problem=kreska pseudotaktowa	!
.	.	.	.	4dd\	16r
.	.	.	.	.	16D/
.	.	.	.	.	16E\
!	!	!	!	!	!LO:TX:t=P:problem=kreska pseudotaktowa
.	.	.	.	.	16F\
=18-	=18-	=18-	=18-	=18-	=18-
4G\	.	4G\	.	2r	8.G\
.	.	.	.	.	32F\
.	.	.	.	.	32G\
4E\	.	4E\	.	.	16E\
.	.	.	.	.	16G\
.	.	.	.	.	16A\
.	.	.	.	.	16B\
4C/	.	4C/	.	4r	8.c\
.	.	.	.	.	32B\
.	.	.	.	.	32c\
!	!	!	!	!	!LO:TX:t=P:problem=kreska pseudotaktowa
4F\	.	4F\	.	16r	4A\
.	.	.	.	16a/	.
.	.	.	.	16b/	.
.	.	.	.	16cc\	.
=19-	=19-	=19-	=19-	=19-	=19-
4D/	.	4D/	.	8.dd\	4r
.	.	.	.	32cc\	.
.	.	.	.	32dd\	.
4G\	.	4G\	.	16b/	8.G\
.	.	.	.	16dd\	.
.	.	.	.	16ee\	.
.	.	.	.	16ff\	16F\
*	*	*	*	*	*custos:E
!	!	!	!	!	!LO:LB:g=original
4E\	.	4E\	.	8.gg\	8.E\
.	.	.	.	32ff\	16D/
.	.	.	.	32gg\	.
!	!	!	!	!LO:TX:t=P:problem=kreska pseudotaktowa	!
4C/	.	4C/	.	4ee\	8.C/
!	!	!	!	!	!LO:TX:t=P:problem=kreska pseudotaktowa
.	.	.	.	.	16BB/
*custos:AA	*	*custos:AA	*	*	*
!LO:LB:g=original	!	!LO:LB:g=original	!	!	!
=20-	=20-	=20-	=20-	=20-	=20-
4AA/	.	4AA/	.	4r	16AA/
.	.	.	.	.	16E\
.	.	.	.	.	16F\
.	.	.	.	.	16G\
4A\	.	4A\	.	8.ccc\	8.A\
.	.	.	.	16bb\	32G\
.	.	.	.	.	32A\
4F\	.	4F\	.	8.aa\	4F\
.	.	.	.	16gg\	.
!	!	!	!	!	!LO:TX:t=P:problem=kreska pseudotaktowa
4D/	.	4D/	.	8.ff\	4r
.	.	.	.	16ee\	.
=21-	=21-	=21-	=21-	=21-	=21-
4G\	.	4G\	.	16dd\	4r
.	.	.	.	16b/	.
.	.	.	.	16cc\	.
.	.	.	.	16dd\	.
4E\	.	4E\	.	8.ee\	16r
.	.	.	.	.	16E\
.	.	.	.	.	16F\
.	.	.	.	32dd\	16G\
.	.	.	.	32ee\	.
4A\	.	4A\	.	8.cc\	8.A\
.	.	.	.	32b/	32G\
.	.	.	.	32cc\	32A\
!LO:TX:t=P:problem=kreska pseudotaktowa	!	!LO:TX:t=P:problem=kreska pseudotaktowa	!	!	!
4F\	.	4F\	.	4a/	8.F\
.	.	.	.	.	32E\
!	!	!	!	!	!LO:TX:t=P:problem=kreska pseudotaktowa
.	.	.	.	.	32F\
*	*	*	*	*custos:a	*
!	!	!	!	!LO:LB:g=original	!
=22-	=22-	=22-	=22-	=22-	=22-
2D/	.	2D/	.	16r	4D/
.	.	.	.	16a/	.
.	.	.	.	16b/	.
.	.	.	.	16cc\	.
.	.	.	.	8.dd\	16r
.	.	.	.	.	16D/
.	.	.	.	.	16E\
.	.	.	.	32cc\	16F\
.	.	.	.	32dd\	.
4G\	.	4G\	.	8.b/	8.G\
.	.	.	.	32a/	32F\
.	.	.	.	32b/	32G\
!	!	!	!	!LO:TX:t=P:problem=kreska pseudotaktowa	!
4E\	.	4E\	.	4g/	8.E\
.	.	.	.	.	32D/
.	.	.	.	.	32E\
=23-	=23-	=23-	=23-	=23-	=23-
4C/	.	4C/	.	8gg\	4C/
.	.	.	.	16gg\	.
.	.	.	.	16gg\	.
4EE/	.	4EE/	.	16gg\	4r
.	.	.	.	16gg\	.
.	.	.	.	16ff\	.
.	.	.	.	16gg\	.
4FF/	.	4FF/	.	4aa\	8r
.	.	.	.	.	16F\
.	.	.	.	.	16E\
*	*	*	*	*	*custos:D
!	!	!	!	!	!LO:LB:g=original
!	!	!	!	!LO:TX:t=P:problem=kreska pseudotaktowa	!
4GG/	.	4GG/	.	4r	8D/
.	.	.	.	.	16G\
!	!	!	!	!	!LO:TX:t=P:problem=kreska pseudotaktowa
.	.	.	.	.	16F\
=24-	=24-	=24-	=24-	=24-	=24-
4C/	.	4C/	.	8r	8E\
.	.	.	.	16cc\	8C/
.	.	.	.	16b/	.
4D/	.	4D/	.	8a/	4r
.	.	.	.	16dd\	.
.	.	.	.	16cc\	.
4GG/	.	4GG/	.	8b/	8G\
.	.	.	.	8g/	16G\
.	.	.	.	.	16G\
!LO:TX:t=P:problem=kreska pseudotaktowa	!	!LO:TX:t=P:problem=kreska pseudotaktowa	!	!	!
4G\	.	4G\	.	4r	16G\
.	.	.	.	.	16G\
.	.	.	.	.	16F\
!	!	!	!	!	!LO:TX:t=P:problem=kreska pseudotaktowa
.	.	.	.	.	16G\
*	*	*	*	*custos:ff	*
!	!	!	!	!LO:LB:g=original	!
=25-	=25-	=25-	=25-	=25-	=25-
4A\	.	4A\	.	8r	4A\
.	.	.	.	16ff\	.
.	.	.	.	16ee\	.
4B\	.	4B\	.	8dd\	4r
.	.	.	.	16gg\	.
.	.	.	.	16ff\	.
8c\	.	8c\	.	8ee\	8r
8C/	.	8C/	.	8cc\	16C/
.	.	.	.	.	16BB/
!	!	!	!	!LO:TX:t=P:problem=kreska pseudotaktowa	!
4AA/	.	4AA/	.	4r	8AA/
.	.	.	.	.	16A\
!	!	!	!	!	!LO:TX:t=P:problem=kreska pseudotaktowa
.	.	.	.	.	16G\
=26-	=26-	=26-	=26-	=26-	=26-
4D/	#	4D/	#	8a/	8F#X\
.	.	.	.	16a/	8D/
.	.	.	.	16a/	.
4FF#X/	.	4FF#X/	.	16a/	8r
.	.	.	.	16a/	.
.	.	.	.	16g/	16D/
.	.	.	.	16a/	16C/
4GG/	.	4GG/	.	8b/	8BB/
.	.	.	.	16dd\	8GG/
.	.	.	.	16dd\	.
!LO:TX:t=P:problem=kreska pseudotaktowa	!	!LO:TX:t=P:problem=kreska pseudotaktowa	!	!	!LO:TX:t=P:problem=kreska pseudotaktowa
4BB/	.	4BB/	.	16dd\	4r
.	.	.	.	16dd\	.
.	.	.	.	16cc\	.
!	!	!	!	!LO:TX:t=P:problem=kreska pseudotaktowa	!
.	.	.	.	16dd\	.
=27-	=27-	=27-	=27-	=27-	=27-
4C/	6 5	4C/	6 5	8ee\	2r
.	.	.	.	16cc\	.
.	.	.	.	16b/	.
4D/	6	4D/	6	8a/	.
.	.	.	.	16dd\	.
.	.	.	.	16cc\	.
4GG/	.	4GG/	.	8b/	8G\
.	.	.	.	8g/	16G\
.	.	.	.	.	16G\
4EE/	.	4EE/	.	4r	16G\
.	.	.	.	.	16G\
.	.	.	.	.	16Fny\
.	.	.	.	.	16G\
*	*	*	*	*custos:ee	*
!	!	!	!	!LO:PB:g=original	!
=28-	=28-	=28-	=28-	=28-	=28-
4FFny/	6 5	4FFny/	6 5	2r	8A\
.	.	.	.	.	16F\
.	.	.	.	.	16E\
4GG/	.	4GG/	.	.	8D/
.	.	.	.	.	16G\
.	.	.	.	.	16F\
*	*	*	*	*	*custos:E
!	!	!	!	!	!LO:LB:g=original
!LO:TX:t=P:problem=kreska pseudotaktowa	!	!LO:TX:t=P:problem=kreska pseudotaktowa	!	!	!
[2C/	.	[2C/	.	4r	8E\
.	.	.	.	.	8C/
!	!	!	!	!	!LO:TX:t=P:problem=kreska pseudotaktowa
.	.	.	.	8.ee\	4r
.	.	.	.	16dd\	.
=29-	=29-	=29-	=29-	=29-	=29-
4C/]	.	4C/]	.	8.cc\	16r
.	.	.	.	.	16C/
.	.	.	.	.	16D/
.	.	.	.	16b/	16E\
4F\	.	4F\	.	8.a/	8.F\
.	.	.	.	16g/	32E\
.	.	.	.	.	32F\
[2D/	.	[2D/	.	4fny/	4D/
!	!	!	!	!	!LO:TX:t=P:problem=kreska pseudotaktowa
.	.	.	.	8.ff\	4r
!	!	!	!	!LO:TX:t=P:problem=kreska pseudotaktowa	!
.	.	.	.	16ee\	.
=30-	=30-	=30-	=30-	=30-	=30-
4D/]	.	4D/]	.	8.dd\	16r
.	.	.	.	.	16D/
.	.	.	.	.	16E\
.	.	.	.	16cc\	16F\
4G\	.	4G\	.	8.b/	8.G\
.	.	.	.	16a/	32F\
.	.	.	.	.	32G\
*custos:E	*	*custos:E	*	*	*
!LO:LB:g=original	!	!LO:LB:g=original	!	!	!
[<2E\	.	[<2E\	.	4g/	4E\
!	!	!	!	!	!LO:TX:t=P:problem=kreska pseudotaktowa
.	.	.	.	8.gg\	4r
.	.	.	.	16ff\	.
=31-	=31-	=31-	=31-	=31-	=31-
4E\]	.	4E\]	.	8.ee\	16r
.	.	.	.	.	16E\
.	.	.	.	.	16F\
.	.	.	.	16dd\	16G\
4A\	.	4A\	.	8.cc\	8.A\
.	.	.	.	16b/	32G\
.	.	.	.	.	32A\
4F\	.	4F\	.	4a/	8.F\
.	.	.	.	.	32E\
.	.	.	.	.	32F\
[4D/	.	[4D/	.	8.aa\	4D/
.	.	.	.	32gg\	.
!	!	!	!	!LO:TX:t=P:problem=kreska pseudotaktowa	!
.	.	.	.	32aa\	.
*	*	*	*	*	*custos:G
!	!	!	!	!	!LO:LB:g=original
=32-	=32-	=32-	=32-	=32-	=32-
4D/]	.	4D/]	.	8.ff\	4r
.	.	.	.	32ee\	.
.	.	.	.	32ff\	.
4G\	.	4G\	.	4dd\	8.G\
.	.	.	.	.	32F\
.	.	.	.	.	32G\
4E\	.	4E\	.	8.gg\	8.E\
.	.	.	.	32ff\	32D/
.	.	.	.	32gg\	32E\
!LO:TX:t=P:problem=kreska pseudotaktowa	!	!LO:TX:t=P:problem=kreska pseudotaktowa	!	!	!
4C/	.	4C/	.	8.ee\	8.C/
.	.	.	.	32dd\	32BB/
!	!	!	!	!	!LO:TX:t=P:problem=kreska pseudotaktowa
.	.	.	.	32ee\	32C/
*	*	*	*	*custos:cc	*
!	!	!	!	!LO:LB:g=original	!
=33-	=33-	=33-	=33-	=33-	=33-
4AA/	.	4AA/	.	4cc\	16AA/
.	.	.	.	.	16C/
.	.	.	.	.	16D/
.	.	.	.	.	16E\
4F\	.	4F\	.	4r	8.F\
.	.	.	.	.	32E\
.	.	.	.	.	32F\
4D/	.	4D/	.	4r	4D/
4G\	.	4G\	.	8.gg\	16r
.	.	.	.	.	16G\
.	.	.	.	.	16A\
!	!	!	!	!LO:TX:t=P:problem=kreska pseudotaktowa	!LO:TX:t=P:problem=kreska pseudotaktowa
.	.	.	.	16ff\	16B\
=34-	=34-	=34-	=34-	=34-	=34-
4c\	.	4c\	.	8.ee\	8.c\
.	.	.	.	16dd\	32B\
.	.	.	.	.	32c\
4A\	.	4A\	.	8.cc\	8.A\
.	.	.	.	16b/	32G\
.	.	.	.	.	32A\
4F\	.	4F\	.	8a/	4F\
.	.	.	.	16a/	.
.	.	.	.	16a/	.
!LO:TX:t=P:problem=kreska pseudotaktowa	!	!LO:TX:t=P:problem=kreska pseudotaktowa	!	!	!LO:TX:t=P:problem=kreska pseudotaktowa
4D/	.	4D/	.	16a/	4r
.	.	.	.	16a/	.
.	.	.	.	16g/	.
!	!	!	!	!LO:TX:t=P:problem=kreska pseudotaktowa	!
.	.	.	.	16a/	.
=35-	=35-	=35-	=35-	=35-	=35-
2D/	6	2D/	6	8b/	8D/
.	.	.	.	16b/	16D/
.	.	.	.	16b/	16D/
.	.	.	.	16b/	16D/
.	.	.	.	16b/	16D/
.	.	.	.	16a/	16C/
.	.	.	.	16b/	16D/
*	*	*	*	*	*custos:E
!	!	!	!	!	!LO:LB:g=original
4C/	.	4C/	.	4cc\	8E\
.	.	.	.	.	16C/
.	.	.	.	.	16BB/
8AA/	.	8AA/	.	4r	8AA/
8D/	.	8D/	.	.	16D/
!	!	!	!	!	!LO:TX:t=P:problem=kreska pseudotaktowa
.	.	.	.	.	16C/
=36-	=36-	=36-	=36-	=36-	=36-
4GG/	.	4GG/	.	2r	8BB/
.	.	.	.	.	8GG/
4G\	.	4G\	.	.	8.G\
.	.	.	.	.	16F\
4E\	.	4E\	.	8gg\	8.E\
.	.	.	.	16gg\	.
.	.	.	.	16gg\	16D/
!LO:TX:t=P:problem=kreska pseudotaktowa	!	!LO:TX:t=P:problem=kreska pseudotaktowa	!	!	!
4C/	.	4C/	.	16gg\	8.C/
.	.	.	.	16gg\	.
.	.	.	.	16ff\	.
.	.	.	.	16gg\	16BB/
=37-	=37-	=37-	=37-	=37-	=37-
4AA/	.	4AA/	.	8aa\	4AA/
.	.	.	.	16ff\	.
.	.	.	.	16ee\	.
4BB/	.	4BB/	.	8dd\	4r
.	.	.	.	16gg\	.
.	.	.	.	16ff\	.
4C/	.	4C/	.	8ee\	4r
.	.	.	.	8cc\	.
4c\	.	4c\	.	8.ee\	8.c\
!	!	!	!	!	!LO:TX:t=P:problem=kreska pseudotaktowa
.	.	.	.	16dd\	16B\
*	*	*	*	*custos:cc	*
!	!	!	!	!LO:LB:g=original	!
=38-	=38-	=38-	=38-	=38-	=38-
4A\	.	4A\	.	4cc\	8.A\
.	.	.	.	.	16G\
4F\	.	4F\	.	8.aa\	8.F\
.	.	.	.	16gg\	16E\
4D/	.	4D/	.	8.ff\	8D/
.	.	.	.	.	16F\
.	.	.	.	16ee\	16F\
!LO:TX:t=P:problem=kreska pseudotaktowa	!	!LO:TX:t=P:problem=kreska pseudotaktowa	!	!	!
4F\	6	4F\	6	8.dd\	16F\
.	.	.	.	.	16F\
.	.	.	.	.	16E\
.	.	.	.	16cc\	16F\
*	*	*	*	*	*custos:G
!	!	!	!	!	!LO:LB:g=original
=39-	=39-	=39-	=39-	=39-	=39-
4G\	.	4G\	.	8b/	4G\
.	.	.	.	16b/	.
.	.	.	.	16b/	.
4E\	.	4E\	.	16b/	8.E\
.	.	.	.	16b/	.
.	.	.	.	16a/	.
.	.	.	.	16b/	16D/
4C/	.	4C/	.	4cc\	8.C/
.	.	.	.	.	16BB/
4AA/	.	4AA/	.	8.ccc\	8.AA/
!	!	!	!	!LO:TX:t=P:problem=kreska pseudotaktowa	!LO:TX:t=P:problem=kreska pseudotaktowa
.	.	.	.	16bb\	16GG/
=40-	=40-	=40-	=40-	=40-	=40-
2FF/	.	2FF/	.	8.aa\	16FF/
.	.	.	.	.	16C/
.	.	.	.	.	16D/
.	.	.	.	16gg\	16E\
.	.	.	.	8.ff\	4F\
.	.	.	.	16ee\	.
4GG/	.	4GG/	.	4dd\	16r
.	.	.	.	.	16GG/
.	.	.	.	.	16AA/
.	.	.	.	.	16BB/
4C/	.	4C/	.	16r	8.C/
.	.	.	.	16g/	.
.	.	.	.	16a/	.
!	!	!	!	!LO:TX:t=P:problem=kreska pseudotaktowa	!
.	.	.	.	16b/	32BB/
!	!	!	!	!	!LO:TX:t=P:problem=kreska pseudotaktowa
.	.	.	.	.	32C/
*custos:AA	*	*custos:AA	*	*	*
!LO:LB:g=original	!	!LO:LB:g=original	!	!	!
=41-	=41-	=41-	=41-	=41-	=41-
4AA/	.	4AA/	.	8.cc\	16AA/
.	.	.	.	.	16AA/
.	.	.	.	.	16BB/
!	!	!	!	!	!LO:TX:b:t=Aaaaa
.	.	.	.	32b/	16C/
.	.	.	.	32cc\	.
4D/	.	4D/	.	16a/	8.D/
.	.	.	.	16a/	.
.	.	.	.	16b/	.
.	.	.	.	16cc\	32C/
.	.	.	.	.	32D/
*	*	*	*	*custos:dd	*
!	!	!	!	!LO:LB:g=original	!
4BB/	.	4BB/	.	8.dd\	16BB/
.	.	.	.	.	16BB/
.	.	.	.	.	16C/
.	.	.	.	32cc\	16D/
.	.	.	.	32dd\	.
4E\	.	4E\	.	16b/	8.E\
.	.	.	.	16b/	.
.	.	.	.	16cc\	.
!	!	!	!	!LO:TX:t=P:problem=kreska pseudotaktowa	!
.	.	.	.	16dd\	32D/
!	!	!	!	!	!LO:TX:t=P:problem=kreska pseudotaktowa
.	.	.	.	.	32E\
=42-	=42-	=42-	=42-	=42-	=42-
2C/	5	2C/	5	8.ee\	4C/
.	.	.	.	32dd\	.
.	.	.	.	32ee\	.
.	.	.	.	16cc\	4r
.	.	.	.	16ee\	.
.	.	.	.	16ff\	.
.	.	.	.	16gg\	.
*	*	*	*	*	*custos:C
!	!	!	!	!	!LO:PB:g=original
2C/	6	2C/	6	4aa\	8C/
.	.	.	.	.	16C/
.	.	.	.	.	16C/
!	!	!	!	!LO:TX:t=P:problem=kreska pseudotaktowa	!
.	.	.	.	4r	16C/
.	.	.	.	.	16C/
.	.	.	.	.	16BB/
!	!	!	!	!	!LO:TX:t=P:problem=kreska pseudotaktowa
.	.	.	.	.	16C/
=43-	=43-	=43-	=43-	=43-	=43-
2D/	.	2D/	.	4r	4D/
.	.	.	.	8.dd\	16r
.	.	.	.	.	16D/
.	.	.	.	.	16E\
.	.	.	.	16cc\	16F\
4G\	.	4G\	.	8.b/	8.G\
.	.	.	.	16a/	32F\
.	.	.	.	.	32G\
!LO:TX:t=P:problem=kreska pseudotaktowa	!	!LO:TX:t=P:problem=kreska pseudotaktowa	!	!	!
4E\	.	4E\	.	8.g/	8.E\
!	!	!	!	!LO:TX:t=P:problem=kreska pseudotaktowa	!
.	.	.	.	16f/	32D/
!	!	!	!	!	!LO:TX:t=P:problem=kreska pseudotaktowa
.	.	.	.	.	32E\
=44-	=44-	=44-	=44-	=44-	=44-
2.C/	.	2.C/	.	4e/	4C/
.	.	.	.	8.ee\	8.c\
.	.	.	.	16dd\	16B\
.	.	.	.	8.cc\	8.A\
.	.	.	.	16b/	16G\
4D/	#	4D/	#	8.a/	8.F#X\
.	.	.	.	16g/	16E\
=45-	=45-	=45-	=45-	=45-	=45-
4D/	#	4D/	#	8f#X/	8.D/
.	.	.	.	8a/	.
.	.	.	.	.	16C/
4BB/	.	4BB/	.	8.dd\	8.BB/
.	.	.	.	16cc\	32AA/
.	.	.	.	.	32GG/
*	*	*	*	*custos:b	*
!	!	!	!	!LO:LB:g=original	!
2D/	6 4	2D/	6 4	8.b/	4.DD/
.	.	.	.	32a/	.
.	.	.	.	32g/	.
.	5 #	.	5 #	4a/	.
.	.	.	.	.	8DD/
=46-	=46-	=46-	=46-	=46-	=46-
!LO:TX:t=P:problem=kreska pseudotaktowa	!	!LO:TX:t=P:problem=kreska pseudotaktowa	!	!LO:TX:t=P:problem=kreska pseudotaktowa	!
1GG	.	1GG	.	1g	1GG
*	*	*	*	*	*custos:E
!	!	!	!	!	!LO:LB:g=original
=47-	=47-	=47-	=47-	=47-	=47-
!LO:TX:b:t=adagio.	!	!LO:TX:b:t=adagio.	!	!LO:TX:b:t=Adagio	!
2G\	.	2G\	.	8r	2r
.	.	.	.	8b/	.
.	.	.	.	8g/	.
.	.	.	.	16dd\	.
.	.	.	.	16b/	.
4E\	.	4E\	.	8ee\	8r
!	!	!	!	!	!LO:TX:b:t=adagio.
.	.	.	.	8gg\	8E\
4C/	.	4C/	.	8ee\	8C/
.	.	.	.	16cc\	16G\
.	.	.	.	16b/	16E\
=48-	=48-	=48-	=48-	=48-	=48-
2F\	.	2F\	.	8.a/	8A\
.	.	.	.	.	8c\
.	.	.	.	16b/	.
.	.	.	.	2cc\	8A\
.	.	.	.	.	16Fny\
.	.	.	.	.	16E\
2D/	7	2D/	7	.	2D/
.	6	.	6	4b/	.
=49-	=49-	=49-	=49-	=49-	=49-
!LO:TX:t=P:problem=kreska pseudotaktowa	!	!LO:TX:t=P:problem=kreska pseudotaktowa	!	!	!
1C	.	1C	.	1cc	1C
=50-	=50-	=50-	=50-	=50-	=50-
2C/	.	2C/	.	8r	2r
.	.	.	.	8ee\	.
.	.	.	.	8cc\	.
.	.	.	.	16gg\	.
.	.	.	.	16ee\	.
4AA/	.	4AA/	.	8aa\	8r
.	.	.	.	8ccc\	8AA/
4FF/	.	4FF/	.	8aa\	8FF/
.	.	.	.	16ff\	16C/
.	.	.	.	16ee\	16AA/
=51-	=51-	=51-	=51-	=51-	=51-
2BB-X/	.	2BB-X/	.	8.dd\	8D/
.	.	.	.	.	8F\
.	.	.	.	16ee\	.
.	.	.	.	2ff\	8D/
.	.	.	.	.	16BB-X/
.	.	.	.	.	16AA/
2GG/	7	2GG/	7	.	2GG/
.	6	.	6	4ee\	.
=52-	=52-	=52-	=52-	=52-	=52-
!LO:TX:t=P:problem=kreska pseudotaktowa	!	!LO:TX:t=P:problem=kreska pseudotaktowa	!	!	!
1FF	.	1FF	.	1ff	1FF
=53-	=53-	=53-	=53-	=53-	=53-
2A\	.	2A\	.	8r	2r
.	.	.	.	8cc\	.
.	.	.	.	8a/	.
.	.	.	.	16ee\	.
.	.	.	.	16cc\	.
*	*	*	*	*custos:ff	*
!	!	!	!	!LO:LB:g=original	!
4F\	.	4F\	.	8ff\	8r
.	.	.	.	8aa\	8F\
4D/	.	4D/	.	8ff\	8D/
.	.	.	.	16dd\	16A\
.	.	.	.	16cc\	16F\
=54-	=54-	=54-	=54-	=54-	=54-
2G\	-	2G\	-	8.b-X/	8B-X\
.	.	.	.	.	8d\
.	.	.	.	16cc\	.
.	.	.	.	2dd\	8B-X\
.	.	.	.	.	16G\
.	.	.	.	.	16F\
2E\	7 #	2E\	7 #	.	2E\
.	6 x	.	6 x	4cc#X\	.
*	*	*	*	*	*custos:D
!	!	!	!	!	!LO:LB:g=original
=55-	=55-	=55-	=55-	=55-	=55-
!LO:TX:t=P:problem=kreska pseudotaktowa	!	!LO:TX:t=P:problem=kreska pseudotaktowa	!	!	!
1D	.	1D	.	1dd	1D
=56-	=56-	=56-	=56-	=56-	=56-
2D/	#	2D/	#	8r	2r
.	.	.	.	8ff#X\	.
.	.	.	.	8dd\	.
.	.	.	.	16gg\	.
.	.	.	.	16ff#X\	.
4BBny/	.	4BBny/	.	8bb\	8r
.	.	.	.	8ddd\	8BBny/
4GG/	.	4GG/	.	8bb\	8GG/
.	.	.	.	16gg\	16D/
.	.	.	.	16ffny\	16BB/
=57-	=57-	=57-	=57-	=57-	=57-
2C/	.	2C/	.	8.ee\	8E\
.	.	.	.	.	8G\
.	.	.	.	16ff\	.
.	.	.	.	2gg\	8E\
.	.	.	.	.	16C/
.	.	.	.	.	16BB/
2AA/	7 #	2AA/	7 #	.	2AA/
.	6 x	.	6 x	4ff#X\	.
=58-	=58-	=58-	=58-	=58-	=58-
1GG	.	1GG	.	1gg	1GG
*custos:GG	*	*custos:GG	*	*	*
!LO:LB:g=original	!	!LO:LB:g=original	!	!	!
=59-	=59-	=59-	=59-	=59-	=59-
*M3/2	*	*M3/2	*	*M3/2	*M3/2
2GG/	.	2GG/	.	2gg\	2GG/
1AA	6 #	1AA	6 #	2.ff#X\	2.AA/
.	.	.	.	4ff#\	4AA/
=60-	=60-	=60-	=60-	=60-	=60-
2BB/	6	2BB/	6	2gg\	2BB/
1C	.	1C	.	2.ee\	2.C/
.	.	.	.	4ee\	4C/
*	*	*	*	*custos:aa	*
!	!	!	!	!LO:LB:g=original	!
=61-	=61-	=61-	=61-	=61-	=61-
2C#X/	6	2C#X/	6	2aa\	2C#X/
!LO:TX:t=P:problem=kreska pseudotaktowa	!	!LO:TX:t=P:problem=kreska pseudotaktowa	!	!LO:TX:t=P:problem=kreska pseudotaktowa	!LO:TX:t=P:problem=kreska pseudotaktowa
1D	#	1D	#	1dd	1D
=62-	=62-	=62-	=62-	=62-	=62-
2D/	.	2D/	.	2dd\	2D/
1E	6 #	1E	6 #	2.cc#X\	2.E\
.	.	.	.	4cc#\	4E\
=63-	=63-	=63-	=63-	=63-	=63-
2F#X\	6	2F#X\	6	2dd\	2F#X\
1G	.	1G	.	2.bny/	2.G\
.	.	.	.	4b/	4G\
=64-	=64-	=64-	=64-	=64-	=64-
2G#X\	6	2G#X\	6	2ee\	2G#X\
!LO:TX:t=P:problem=kreska pseudotaktowa	!	!LO:TX:t=P:problem=kreska pseudotaktowa	!	!LO:TX:t=P:problem=kreska pseudotaktowa	!LO:TX:t=P:problem=kreska pseudotaktowa
1A	.	1A	.	1a	1A
=65-	=65-	=65-	=65-	=65-	=65-
2AA/	.	2AA/	.	2aa\	2AA/
1BB	6 #	1BB	6 #	2.gg#X\	2.BB/
.	.	.	.	4gg#\	4BB/
*	*	*	*	*	*custos:E
!	!	!	!	!	!LO:LB:g=original
=66-	=66-	=66-	=66-	=66-	=66-
2C#X/	6	2C#X/	6	2aa\	2C#X/
1D	#	1D	#	2.ff#X\	2.D/
.	.	.	.	4ff#\	4D/
=67-	=67-	=67-	=67-	=67-	=67-
2D#X/	.	2D#X/	.	2bb\	2D#X/
!LO:TX:t=P:problem=kreska pseudotaktowa	!	!LO:TX:t=P:problem=kreska pseudotaktowa	!	!LO:TX:t=P:problem=kreska pseudotaktowa	!LO:TX:t=P:problem=kreska pseudotaktowa
1E	#	1E	#	1ee	1E
=68-	=68-	=68-	=68-	=68-	=68-
2E\	#	2E\	#	1.r	4E\
.	.	.	.	.	4E\
2Cny/	.	2Cny/	.	.	4Cny/
.	.	.	.	.	8C/
.	.	.	.	.	8Dny/
2AA/	.	2AA/	.	.	4E\
.	.	.	.	.	4AA/
=69-	=69-	=69-	=69-	=69-	=69-
2BB/	.	2BB/	.	4bb\	2BB/
.	.	.	.	4bb\	.
2C/	.	2C/	.	4ggny\	4C/
.	.	.	.	8gg\	4C/
.	.	.	.	8aa\	.
!LO:TX:t=P:problem=kreska pseudotaktowa	!	!LO:TX:t=P:problem=kreska pseudotaktowa	!	!	!
2GG/	.	2GG/	.	4bb\	2GG/
.	.	.	.	4ee\	.
=70-	=70-	=70-	=70-	=70-	=70-
2AA/	6 5	2AA/	6 5	1ff#X	2AA/
1BB	4	1BB	4	.	2.BB/
.	#	.	#	2ff#\	.
.	.	.	.	.	4BB/
=71-	=71-	=71-	=71-	=71-	=71-
1.EE	.	1.EE	.	1.ee	1.EE
=72-	=72-	=72-	=72-	=72-	=72-
2C/	.	2C/	.	2ccny\	2C/
1BB	.	1BB	.	2.dd\	2.BB/
.	.	.	.	4dd\	4BB/
*	*	*	*	*custos:ee	*
!	!	!	!	!LO:LB:g=original	!
=73-	=73-	=73-	=73-	=73-	=73-
2C/	.	2C/	.	2ee\	2C/
1AA	6	1AA	6	2.ffny\	2.AA/
.	.	.	.	4ff\	4AA/
=74-	=74-	=74-	=74-	=74-	=74-
2Dny/	#	2Dny/	#	2ff#X\	2D/
!	!	!	!	!LO:TX:t=P:problem=kreska pseudotaktowa	!LO:TX:t=P:problem=kreska pseudotaktowa
1GG	.	1GG	.	1gg	1GG
*custos:G	*	*custos:G	*	*	*
!LO:LB:g=original	!	!LO:LB:g=original	!	!	!
=75-	=75-	=75-	=75-	=75-	=75-
2Gny\	.	2Gny\	.	1.r	2Gny\
1F#X	.	1F#X	.	.	2.F#X\
.	.	.	.	.	4F#\
=76-	=76-	=76-	=76-	=76-	=76-
2G\	.	2G\	.	4bb\	2G\
.	.	.	.	4bb\	.
1E	5	1E	5	4gg\	2.E\
.	.	.	.	8gg\	.
.	.	.	.	8aa\	.
.	.	.	.	4bb\	.
.	.	.	.	4gg\	4E\
=77-	=77-	=77-	=77-	=77-	=77-
2A\	.	2A\	.	4aa\	2A\
.	.	.	.	4aa\	.
!LO:TX:t=P:problem=kreska pseudotaktowa	!	!LO:TX:t=P:problem=kreska pseudotaktowa	!	!	!
1D	#	1D	#	4ff#X\	1D
.	.	.	.	8ff#\	.
.	.	.	.	8gg\	.
.	.	.	.	4aa\	.
.	.	.	.	4dd\	.
*	*	*	*	*	*custos:E
!	!	!	!	!	!LO:LB:g=original
=78-	=78-	=78-	=78-	=78-	=78-
2E\	.	2E\	.	0.r	4E\
.	.	.	.	.	4E\
2C/	6	2C/	6	.	4C/
.	.	.	.	.	8C/
.	.	.	.	.	8D/
2AA/	.	2AA/	.	.	4E\
.	.	.	.	.	4AA/
=79-	=79-	=79-	=79-	=79-	=79-
2D/	.	2D/	.	.	4D/
.	.	.	.	.	4D/
2BB/	6	2BB/	6	.	4BB/
.	.	.	.	.	8BB/
.	.	.	.	.	8C/
2AA/	.	2AA/	.	.	4D/
.	.	.	.	.	4AA/
=80-	=80-	=80-	=80-	=80-	=80-
2G\	.	2G\	.	1.r	4G\
.	.	.	.	.	4G\
2E\	5	2E\	5	.	4E\
.	.	.	.	.	8E\
.	.	.	.	.	8Fny\
2C/	.	2C/	.	.	4G\
.	.	.	.	.	4C/
=81-	=81-	=81-	=81-	=81-	=81-
2D/	.	2D/	.	4dd\	2D/
.	.	.	.	4dd\	.
2E\	5	2E\	5	4b/	4E\
.	.	.	.	8b/	4E\
.	.	.	.	8cc\	.
2BB/	6	2BB/	6	4dd\	2BB/
.	.	.	.	4g/	.
=82-	=82-	=82-	=82-	=82-	=82-
2C/	6	2C/	6	1a	4C/
.	.	.	.	.	4C/
2AA/	7	2AA/	7	.	4AA/
.	.	.	.	.	8BB/
.	.	.	.	.	8C/
2D/	#	2D/	#	2a/	4D/
.	.	.	.	.	4DD/
=83-	=83-	=83-	=83-	=83-	=83-
!LO:TX:t=P:problem=kreska pseudotaktowa	!	!LO:TX:t=P:problem=kreska pseudotaktowa	!	!	!
1.GG	.	1.GG	.	1.g	1.GG
=84-	=84-	=84-	=84-	=84-	=84-
2C/	.	2C/	.	1.r	2C/
1BB	.	1BB	.	.	2.BB/
.	.	.	.	.	4BB/
*	*	*	*	*custos:ee	*
!	!	!	!	!LO:LB:g=original	!
=85-	=85-	=85-	=85-	=85-	=85-
2C/	.	2C/	.	4ee\	2C/
.	.	.	.	4ee\	.
1AA	-	1AA	-	4cc\	2.AA/
.	.	.	.	8cc\	.
.	.	.	.	8dd\	.
.	.	.	.	4ee\	.
.	.	.	.	4a/	4AA/
=86-	=86-	=86-	=86-	=86-	=86-
2D/	#	2D/	#	1.r	2D/
!LO:TX:t=P:problem=kreska pseudotaktowa	!	!LO:TX:t=P:problem=kreska pseudotaktowa	!	!	!
1GG	.	1GG	.	.	1GG
*	*	*	*	*	*custos:G
!	!	!	!	!	!LO:LB:g=original
=87-	=87-	=87-	=87-	=87-	=87-
2G\	.	2G\	.	2gg\	4G\
.	.	.	.	.	4G\
1D	#	1D	#	2.ff#X\	4D/
.	.	.	.	.	8D/
.	.	.	.	.	8E\
.	.	.	.	.	4F#X\
.	.	.	.	4ff#\	4D/
=88-	=88-	=88-	=88-	=88-	=88-
2E\	-	2E\	-	2gg\	4E\
.	.	.	.	.	4E\
2C/	6	2C/	6	2.ee\	4C/
.	.	.	.	.	8C/
.	.	.	.	.	8D/
2AA/	.	2AA/	.	.	4E\
!	!	!	!	!	!LO:TX:t=P:problem=kreska pseudotaktowa
.	.	.	.	4ee\	4AA/
=89-	=89-	=89-	=89-	=89-	=89-
1.FF#X	.	1.FF#X	.	2aa\	4A\
.	.	.	.	.	4A\
!	!	!	!	!LO:TX:t=P:problem=kreska pseudotaktowa	!
.	.	.	.	1dd	4F#X\
.	.	.	.	.	8F#\
.	.	.	.	.	8G\
.	.	.	.	.	4A\
.	.	.	.	.	4D/
=90-	=90-	=90-	=90-	=90-	=90-
1.GG	.	1.GG	.	4dd\	0.r
.	.	.	.	4dd\	.
.	.	.	.	4b/	.
.	.	.	.	8b/	.
.	.	.	.	8cc\	.
.	.	.	.	4dd\	.
.	.	.	.	4g/	.
=91-	=91-	=91-	=91-	=91-	=91-
1.E	6	1.E	6	4gg\	.
.	.	.	.	4gg\	.
.	.	.	.	4ee\	.
.	.	.	.	8ee\	.
.	.	.	.	8ffny\	.
.	.	.	.	4gg\	.
.	.	.	.	4cc\	.
=92-	=92-	=92-	=92-	=92-	=92-
1.Fny	.	1.Fny	.	1.r	4c\
.	.	.	.	.	4c\
.	.	.	.	.	4A\
.	.	.	.	.	8A\
.	.	.	.	.	8Bny\
.	.	.	.	.	4c\
.	.	.	.	.	4Fny\
*custos:D	*	*custos:D	*	*	*
!LO:LB:g=original	!	!LO:LB:g=original	!	!	!
=93-	=93-	=93-	=93-	=93-	=93-
1.D	#	1.D	#	4aa\	1.r
.	.	.	.	4aa\	.
.	.	.	.	4ff#X\	.
.	.	.	.	8ff#\	.
.	.	.	.	8gg\	.
.	.	.	.	4aa\	.
.	.	.	.	4dd\	.
*	*	*	*	*custos:ee	*
!	!	!	!	!LO:LB:g=original	!
=94-	=94-	=94-	=94-	=94-	=94-
2A\	.	2A\	.	2ee\	4A\
.	.	.	.	.	4A\
2F#X\	.	2F#X\	.	2.ff#X\	4F#X\
.	.	.	.	.	8F#\
.	.	.	.	.	8G\
2D/	#	2D/	#	.	4A\
.	.	.	.	4ff#\	4D/
=95-	=95-	=95-	=95-	=95-	=95-
!LO:TX:t=P:problem=kreska pseudotaktowa	!	!LO:TX:t=P:problem=kreska pseudotaktowa	!	!LO:TX:t=P:problem=kreska pseudotaktowa	!
1.AA	#	1.AA	#	1.ee	1.AA
*	*	*	*	*	*custos:D
!	!	!	!	!	!LO:LB:g=original
=96-	=96-	=96-	=96-	=96-	=96-
2D/	.	2D/	.	2dd\	2D/
1C#X	.	1C#X	.	2.ee\	2.C#X/
.	.	.	.	4ee\	4C#/
=97-	=97-	=97-	=97-	=97-	=97-
2D/	#	2D/	#	2ff#X\	2D/
1BB	6	1BB	6	2.gg\	2.BB/
.	.	.	.	4gg\	4BB/
=98-	=98-	=98-	=98-	=98-	=98-
2E\	#	2E\	#	2gg#X\	2E\
!LO:TX:t=P:problem=kreska pseudotaktowa	!	!LO:TX:t=P:problem=kreska pseudotaktowa	!	!LO:TX:t=P:problem=kreska pseudotaktowa	!LO:TX:t=P:problem=kreska pseudotaktowa
1AA	.	1AA	.	1aa	1AA
=99-	=99-	=99-	=99-	=99-	=99-
2A\	.	2A\	.	2cc\	4A\
.	.	.	.	.	4A\
!	!	!	!	!LO:TX:b:t=D	!
2F#X\	.	2F#X\	.	2.dd\	4F#X\
.	.	.	.	.	8F#\
.	.	.	.	.	8G\
2D/	.	2D/	.	.	4A\
.	.	.	.	4dd\	4D/
=100-	=100-	=100-	=100-	=100-	=100-
2c\	.	2c\	.	2ee\	4c\
.	.	.	.	.	4c\
2A\	6	2A\	6	2.ffny\	4A\
.	.	.	.	.	8A\
.	.	.	.	.	8B\
2Fny\	.	2Fny\	.	.	4c\
!	!	!	!	!	!LO:TX:t=P:problem=kreska pseudotaktowa
.	.	.	.	4ff\	4Fny\
=101-	=101-	=101-	=101-	=101-	=101-
2D/	#	2D/	#	2ff#X\	4D/
.	.	.	.	.	4D/
!	!	!	!	!LO:TX:t=P:problem=kreska pseudotaktowa	!
2BB/	6	2BB/	6	1ggny	4BB/
.	.	.	.	.	8BB/
.	.	.	.	.	8Cny/
!LO:TX:t=P:problem=kreska pseudotaktowa	!	!LO:TX:t=P:problem=kreska pseudotaktowa	!	!	!
2GG/	.	2GG/	.	.	4D/
.	.	.	.	.	4GG/
=102-	=102-	=102-	=102-	=102-	=102-
2Cny/	.	2Cny/	.	1.r	2C/
1D	.	1D	.	.	2.D/
.	.	.	.	.	4D/
*	*	*	*	*custos:cc	*
!	!	!	!	!LO:PB:g=original	!
=103-	=103-	=103-	=103-	=103-	=103-
2E\	.	2E\	.	4cc\	2E\
.	.	.	.	4cc\	.
1F	5	1F	5	4a/	2.F\
.	.	.	.	8a/	.
.	.	.	.	8b/	.
.	.	.	.	4cc\	.
.	.	.	.	4fny/	4F\
=104-	=104-	=104-	=104-	=104-	=104-
2F#X\	.	2F#X\	.	4dd\	2F#X\
.	.	.	.	4dd\	.
!LO:TX:t=P:problem=kreska pseudotaktowa	!	!LO:TX:t=P:problem=kreska pseudotaktowa	!	!	!
1G	.	1G	.	4b/	1G
.	.	.	.	8b/	.
.	.	.	.	8cc\	.
.	.	.	.	4dd\	.
.	.	.	.	4g/	.
*	*	*	*	*	*custos:c
!	!	!	!	!	!LO:LB:g=original
=105-	=105-	=105-	=105-	=105-	=105-
1.C	.	1.C	.	4gg\	1.r
.	.	.	.	4gg\	.
.	.	.	.	4ee\	.
.	.	.	.	8ee\	.
.	.	.	.	8ffny\	.
.	.	.	.	4gg\	.
!	!	!	!	!LO:TX:t=P:problem=kreska pseudotaktowa	!
.	.	.	.	4cc\	.
=106-	=106-	=106-	=106-	=106-	=106-
!LO:SIC:v:s=2c	!	!LO:SIC:v:s=2c	!	!	!
2B\	.	2B\	.	4ee\	4c\
.	.	.	.	4ee\	4c\
2A\	.	2A\	.	4cc\	4A\
.	.	.	.	8cc\	8A\
.	.	.	.	8dd\	8B\
4c\	.	4c\	.	4ee\	4c\
4Fny\	.	4Fny\	.	4a/	4Fny\
=107-	=107-	=107-	=107-	=107-	=107-
2G\	.	2G\	.	4b/	4G\
.	.	.	.	4b/	4G\
2E\	.	2E\	.	4g/	4E\
.	.	.	.	8g/	8E\
.	.	.	.	8a/	8F\
4G\	.	4G\	.	4b/	4G\
*custos:D	*	*custos:D	*	*	*
!LO:LB:g=original	!	!LO:LB:g=original	!	!	!
!LO:TX:t=P:problem=kreska pseudotaktowa	!	!LO:TX:t=P:problem=kreska pseudotaktowa	!	!	!
4C/	.	4C/	.	4e/	4C/
=108-	=108-	=108-	=108-	=108-	=108-
2D/	.	2D/	.	1.r	4D/
.	.	.	.	.	4D/
2BB/	6	2BB/	6	.	4BB/
.	.	.	.	.	8BB/
.	.	.	.	.	8C/
2GG/	.	2GG/	.	.	4D/
!	!	!	!	!	!LO:TX:t=P:problem=kreska pseudotaktowa
.	.	.	.	.	4GG/
=109-	=109-	=109-	=109-	=109-	=109-
2FF#X/	.	2FF#X/	.	4dd\	2FF#X/
.	.	.	.	4dd\	.
4.GG/	.	4.GG/	.	4b/	4GG/
.	.	.	.	8b/	8GG/
8AA/	.	8AA/	.	8cc\	8AA/
2BB/	.	2BB/	.	4dd\	2BB/
.	.	.	.	4g/	.
*	*	*	*	*custos:a	*
!	!	!	!	!LO:LB:g=original	!
=110-	=110-	=110-	=110-	=110-	=110-
2C/	.	2C/	.	1a	4C/
.	.	.	.	.	4C/
2AA/	7	2AA/	7	.	4AA/
.	.	.	.	.	8BB/
.	.	.	.	.	8C/
2D/	#	2D/	#	2a/	4D/
.	.	.	.	.	4DD/
=111-	=111-	=111-	=111-	=111-	=111-
1.GG	.	1.GG	.	1.g	1.GG
=112-	=112-	=112-	=112-	=112-	=112-
*M2/2	*	*M2/2	*	*M2/2	*M2/2
*met(C|)	*	*met(C|)	*	*met(C|)	*met(C|)
1GG	.	1GG	.	4r	1r
.	.	.	.	8dd\	.
.	.	.	.	8dd\	.
.	.	.	.	8b/	.
.	.	.	.	16b/	.
.	.	.	.	16cc\	.
.	.	.	.	8dd\	.
.	.	.	.	8g/	.
=113-	=113-	=113-	=113-	=113-	=113-
2.C/	.	2.C/	.	2.ee\	4r
.	.	.	.	.	8G\
.	.	.	.	.	8G\
*	*	*	*	*	*custos:E
!	!	!	!	!	!LO:LB:g=original
.	.	.	.	.	8E\
.	.	.	.	.	16E\
.	.	.	.	.	16F\
4BB/	.	4BB/	.	4dd\	8G\
.	.	.	.	.	8BB/
=114-	=114-	=114-	=114-	=114-	=114-
1C	.	1C	.	1cc	1C
=115-	=115-	=115-	=115-	=115-	=115-
1GGl;	.	1GGl;	.	1bl;	1GGl;
==	==	==	==	==	==
*-	*-	*-	*-	*-	*-
!!!system-decoration: [(ww)][(str)]<klav>
!!!RDF**kern: > = above
!!!RDF**kern: < = below
!!!RDF**kern: l = terminal long
!!!ENC: Filip Voros
!!!END: 2022-11-08
!!!ENC: Andrzej Kubiczek
!!!END: 2022-11-28
!!!YEC: Copyright 2022 Narodowy Instytut Fryderyka Chopina (https://polishscores.org)
!!!YEM: License CC-BY-4.0 (https://creativecommons.org/licenses/by/4.0)
